Papirus/48x48/apps/google-slides.svg

<svg width="48" height="48" version="1.1" xmlns="http://www.w3.org/2000/svg">
 <path d="m10 5c-1.108 0-2 0.892-2 2v36c0 1.108 0.892 2 2 2h28c1.108 0 2-0.892 2-2v-26l-11-1-1-11z" style="opacity:.2"/>
 <path d="m10 4c-1.108 0-2 0.892-2 2v36c0 1.108 0.892 2 2 2h28c1.108 0 2-0.892 2-2v-26l-11-1-1-11z" style="fill:#fec006"/>
 <path d="m10 4c-1.108 0-2 0.892-2 2v1c0-1.108 0.892-2 2-2h18l11 11h1l-12-12z" style="fill:#ffffff;opacity:.1"/>
 <path d="m28 5v10c0 1.1046 0.89543 2 2 2h10z" style="opacity:.2"/>
 <path d="m28 4v10c0 1.1046 0.89543 2 2 2h10z" style="fill:#fed861"/>
 <path d="m18 24c-1.108 0-2 0.892-2 2v10c0 1.108 0.892 2 2 2h12c1.108 0 2-0.892 2-2v-10c0-1.108-0.892-2-2-2zm0 3h12v8h-12z" style="opacity:.2"/>
 <path d="m18 23c-1.108 0-2 0.892-2 2v10c0 1.108 0.892 2 2 2h12c1.108 0 2-0.892 2-2v-10c0-1.108-0.892-2-2-2zm0 3h12v8h-12z" style="fill:#ffffff"/>
</svg>

<svg xmlns="http://www.w3.org/2000/svg" width="48" height="48" version="1.1">
 <path style="opacity:0.2" d="M 10,5 C 8.892,5 8,5.892 8,7 V 43 C 8,44.108 8.892,45 10,45 H 38 C 39.108,45 40,44.108 40,43 V 17 L 28,5 Z"/>
 <path style="fill:#fec006" d="M 10,4 C 8.892,4 8,4.892 8,6 V 42 C 8,43.108 8.892,44 10,44 H 38 C 39.108,44 40,43.108 40,42 V 16 L 30,14 28,4 Z"/>
 <path style="opacity:0.2" d="M 40,17 28,5 V 15 C 28,16.108 28.892,17 30,17 Z"/>
 <path style="fill:#fed861" d="M 40,16 28,4 V 14 C 28,15.108 28.892,16 30,16 Z"/>
 <path style="opacity:0.2;fill:#ffffff" d="M 10 4 C 8.892 4 8 4.892 8 6 L 8 7 C 8 5.892 8.892 5 10 5 L 28 5 L 28 4 L 10 4 z"/>
 <path style="opacity:0.2" d="M 18,24 C 16.892,24 16,24.892 16,26 V 36 C 16,37.108 16.892,38 18,38 H 30 C 31.108,38 32,37.108 32,36 V 26 C 32,24.892 31.108,24 30,24 Z M 18,27 H 30 V 35 H 18 Z"/>
 <path style="fill:#ffffff" d="M 18,23 C 16.892,23 16,23.892 16,25 V 35 C 16,36.108 16.892,37 18,37 H 30 C 31.108,37 32,36.108 32,35 V 25 C 32,23.892 31.108,23 30,23 Z M 18,26 H 30 V 34 H 18 Z"/>
</svg>
